X: 55
M: none
L: 1/8
K: D
.F2.D2 .G2.E2 | A2d2 d2cd | e2A2 fedc | d2A2 ABAG |
ve2A2 cAce | e2[e2B2] [e2B2]cd | e2A2 aece | d2[e2B2] [e2B2]cd |
e2A2 cAce | d2[e2B2] [e2B2]cB | vA4 fe dc |1 d4- d2cd :|2 d4-d4 |]
fae Uyeasoond in Unst.  His midder Ruby wan a competition run
be Radio Aberdeen whaur shu had te say whit band was playing.


